images/single-combat_theme_dark.svg

<svg width="50" height="50" viewBox="0 0 50 50" fill="none" xmlns="http://www.w3.org/2000/svg">
<path d="M10.0808 7.5384C10.0808 5.4424 10.6971 4.0512 12.3845 2.3384L14.6882 0H36.852L42 4.67041V18.5816C42 29.7816 41.7628 32.8552 40.7847 34.3512C39.5812 36.1888 39.4212 36.2072 25.4162 36.0656C11.5049 35.9248 11.2291 35.8888 9.29265 33.9448C7.52015 32.1648 7.29552 31.2144 7.05198 24.4696C6.8849 19.8272 7.12688 16.3184 7.68724 15.2544C8.51793 13.68 9.13106 13.556 15.0341 13.768C21.3266 13.9944 21.4937 14.0528 22.2645 16.284C22.943 18.248 22.7949 18.7792 21.2084 20.084C20.0892 21.0032 18.1315 21.6 16.2329 21.6C14.0829 21.6 13.2049 21.9128 13.4296 22.5968C13.6092 23.1456 14.9814 23.796 16.4773 24.0432C17.9739 24.2896 19.6691 24.788 20.2453 25.1496C20.8214 25.5104 21.9823 27.3888 22.8256 29.3224C23.6681 31.256 24.6919 32.628 25.1002 32.372C25.5092 32.1152 25.8418 31.1168 25.8402 30.1528C25.8386 29.1888 25.1309 27.2232 24.2671 25.7848C22.9596 23.608 22.8595 22.904 23.6713 21.5848C24.4232 20.3624 25.5116 20 28.4332 20C31.4028 20 32.6378 19.576 34.1542 18.036C35.5712 16.5984 36.089 15.2056 36.089 12.836C36.089 10.4928 35.7627 9.6 34.9068 9.6C34.0896 9.6 33.7246 10.4336 33.7246 12.3024C33.7246 13.788 33.2242 15.4256 32.6126 15.9408C32.001 16.456 30.264 17.0808 28.7516 17.3304C26.2161 17.748 25.9024 17.5672 24.7029 15.0024C23.9881 13.4728 22.5167 11.812 21.4338 11.3112C20.3501 10.8096 17.3528 10.4 14.7725 10.4H10.0808V7.5384Z" fill="white"/>
<path fill-rule="evenodd" clip-rule="evenodd" d="M12.8392 50H38.8475L39.3164 40H12.3703L12.8392 50ZM27.5079 47.8592C29.7233 47.644 30.2191 47.2424 30.4177 45.5024C30.5556 44.2952 30.2206 43.2656 29.6295 43.0784C29.0645 42.8992 27.0058 42.9432 25.0552 43.176C22.1502 43.5232 21.4637 43.9208 21.2604 45.372C21.076 46.6864 21.5055 47.2688 22.9249 47.6304C23.9763 47.8984 26.0388 48.0016 27.5079 47.8592Z" fill="white"/>
</svg>

<svg width="50" height="50" fill="none" xmlns="http://www.w3.org/2000/svg"><path d="M10.08 7.538c0-2.096.617-3.487 2.304-5.2L14.688 0h22.164L42 4.67v13.912c0 11.2-.237 14.273-1.215 15.77-1.204 1.837-1.364 1.855-15.369 1.714-13.911-.141-14.187-.177-16.123-2.121-1.773-1.78-1.997-2.73-2.241-9.475-.167-4.643.075-8.152.635-9.216.83-1.574 1.444-1.698 7.347-1.486 6.293.226 6.46.285 7.23 2.516.679 1.964.53 2.495-1.056 3.8-1.119.92-3.076 1.516-4.975 1.516-2.15 0-3.028.313-2.803.997.18.549 1.551 1.199 3.047 1.446 1.497.247 3.192.745 3.768 1.107.576.36 1.737 2.239 2.58 4.172.843 1.934 1.867 3.306 2.275 3.05.41-.257.742-1.255.74-2.22-.001-.963-.71-2.929-1.573-4.367-1.307-2.177-1.407-2.881-.596-4.2.752-1.223 1.84-1.585 4.762-1.585 2.97 0 4.205-.424 5.721-1.964 1.417-1.438 1.935-2.83 1.935-5.2 0-2.343-.326-3.236-1.182-3.236-.817 0-1.182.834-1.182 2.702 0 1.486-.5 3.124-1.112 3.639-.612.515-2.349 1.14-3.861 1.39-2.536.417-2.85.236-4.05-2.329-.714-1.53-2.185-3.19-3.268-3.69-1.084-.502-4.081-.912-6.662-.912h-4.691V7.538Z" fill="#fff"/><path fill-rule="evenodd" clip-rule="evenodd" d="M12.84 50h26.008l.468-10H12.37l.47 10Zm14.668-2.14c2.215-.216 2.711-.618 2.91-2.358.138-1.207-.197-2.236-.788-2.424-.566-.179-2.624-.135-4.575.098-2.905.347-3.591.745-3.795 2.196-.184 1.314.245 1.897 1.665 2.258 1.051.268 3.114.372 4.583.23Z" fill="#fff"/></svg>
